X: 200
T: Bonnie Lass O' Bon Accord
M:4/4
R:march
D: Best of the Ceili Bands
L:1/8
Z:Alf Warnock - alf0@rogers.com
K:G
D2|"G"G3/2F/2G3/2A/2 B3/2c/2B3/2A/2|G2G,2 B,2D2|G3/2F/2Ge dBAG|"D7"ADFA d^c=cA|
"G"G3/2F/2G3/2A/2 B3/2c/2B3/2A/2|G2G,2 B,2D2|"C"ECEG "D7"FDFA| "G"G2G3/2F/2 G2:|
de/2f/2|"G"g3B "C"c2e2|"G"d2G2 g2fe|d3/2G/2FG "C"edcB|"D7"ADFA d^cef|
"G"g3B "C"c2e2|"G"d2G2 F2=F2|"C"ECEG "D7"FDFA| "G"G2G3/2F/2 G2:|
